papirus/48x48/apps/blender.svg

<?xml version="1.0" encoding="UTF-8" standalone="no"?>
<!-- Created with Inkscape (http://www.inkscape.org/) -->

<svg
   xmlns:dc="http://purl.org/dc/elements/1.1/"
   xmlns:cc="http://creativecommons.org/ns#"
   xmlns:rdf="http://www.w3.org/1999/02/22-rdf-syntax-ns#"
   xmlns:svg="http://www.w3.org/2000/svg"
   xmlns="http://www.w3.org/2000/svg"
   xmlns:sodipodi="http://sodipodi.sourceforge.net/DTD/sodipodi-0.dtd"
   xmlns:inkscape="http://www.inkscape.org/namespaces/inkscape"
   id="svg5453"
   height="48"
   width="48"
   version="1.1"
   inkscape:version="0.91 r13725"
   sodipodi:docname="blender.svg">
  <defs
     id="defs11" />
  <sodipodi:namedview
     pagecolor="#ffffff"
     bordercolor="#666666"
     borderopacity="1"
     objecttolerance="10"
     gridtolerance="10"
     guidetolerance="10"
     inkscape:pageopacity="0"
     inkscape:pageshadow="2"
     inkscape:window-width="1600"
     inkscape:window-height="831"
     id="namedview9"
     showgrid="false"
     inkscape:zoom="1"
     inkscape:cx="26.652592"
     inkscape:cy="17.850884"
     inkscape:window-x="0"
     inkscape:window-y="30"
     inkscape:window-maximized="1"
     inkscape:current-layer="svg5453" />
  <metadata
     id="metadata5458">
    <rdf:RDF>
      <cc:Work
         rdf:about="">
        <dc:format>image/svg+xml</dc:format>
        <dc:type
           rdf:resource="http://purl.org/dc/dcmitype/StillImage" />
        <dc:title></dc:title>
      </cc:Work>
    </rdf:RDF>
  </metadata>
  <path
     inkscape:connector-curvature="0"
     style="fill:#f4b43f;fill-opacity:1"
     id="path4145"
     d="m 22.846,4.002 a 2.996,2.9983 0 0 0 -1.703,5.3984 l 3.404,2.6206 -16.555,0 a 2.9961998,2.9985 0 1 0 2e-4,5.997 l 7.5078,0 -12.266,8.918 a 2.996,2.9983 0 1 0 3.5199,4.849 L 13.023,27.229 A 15.977,15.989 0 0 0 12.984,28.01 15.977,15.989 0 0 0 28.961,44 15.977,15.989 0 0 0 44.938,28.01 15.977,15.989 0 0 0 37.992,14.822 2.996,2.9983 0 0 0 37.777,14.641 L 24.795,4.6465 A 2.996,2.9983 0 0 0 22.846,4.002 Z" />
  <path
     style="opacity:0.2;fill:#000000;fill-opacity:1"
     d="M 29,19 A 10,10 0 0 1 39,29 10,10 0 0 1 29,39 10,10 0 0 1 19,29 10,10 0 0 1 29,19 Z"
     id="path4150"
     inkscape:connector-curvature="0" />
  <path
     inkscape:connector-curvature="0"
     id="path4184"
     d="M 29,18 A 10,10 0 0 1 39,28 10,10 0 0 1 29,38 10,10 0 0 1 19,28 10,10 0 0 1 29,18 Z"
     style="fill:#ffffff;fill-opacity:1" />
  <circle
     style="fill:#408ef4"
     r="5"
     cx="29.000008"
     cy="27.999989"
     id="path4178" />
  <path
     style="fill:#ffffff;fill-opacity:1;opacity:0.2"
     d="M 22.845703 4.0019531 A 2.996 2.9983 0 0 0 19.984375 7.5058594 A 2.996 2.9983 0 0 1 22.845703 5.0019531 A 2.996 2.9983 0 0 1 24.794922 5.6464844 L 37.777344 15.640625 A 2.996 2.9983 0 0 1 37.992188 15.822266 A 15.977 15.989 0 0 1 44.917969 28.601562 A 15.977 15.989 0 0 0 44.9375 28.009766 A 15.977 15.989 0 0 0 37.992188 14.822266 A 2.996 2.9983 0 0 0 37.777344 14.640625 L 24.794922 4.6464844 A 2.996 2.9983 0 0 0 22.845703 4.0019531 z M 7.9921875 12.021484 A 2.9961998 2.9985 0 0 0 5.0390625 15.507812 A 2.9961998 2.9985 0 0 1 7.9921875 13.021484 L 24.546875 13.021484 L 23.248047 12.021484 L 7.9921875 12.021484 z M 14.125 19.017578 L 3.234375 26.935547 A 2.996 2.9983 0 0 0 1.9628906 29.908203 A 2.996 2.9983 0 0 1 3.234375 27.935547 L 15.5 19.017578 L 14.125 19.017578 z M 13.023438 28.228516 L 12.996094 28.248047 A 15.977 15.989 0 0 0 13.009766 28.509766 A 15.977 15.989 0 0 1 13.023438 28.228516 z "
     id="path4152" />
  <path
     style="fill:#000000;fill-opacity:1;opacity:0.3"
     d="M 19.984375 6.5058594 A 2.996 2.9983 0 0 0 21.142578 9.4003906 L 23.248047 11.021484 L 24.546875 11.021484 L 21.142578 8.4003906 A 2.996 2.9983 0 0 1 19.984375 6.5058594 z M 5.0390625 14.509766 A 2.9961998 2.9985 0 0 0 7.9921875 18.017578 L 14.125 18.017578 L 15.5 17.017578 L 7.9921875 17.017578 A 2.9961998 2.9985 0 0 1 5.0390625 14.509766 z M 13.023438 26.228516 L 6.7539062 30.785156 A 2.996 2.9983 0 0 1 1.9628906 28.908203 A 2.996 2.9983 0 0 0 6.7539062 31.785156 L 12.996094 27.248047 A 15.977 15.989 0 0 1 12.984375 27.009766 A 15.977 15.989 0 0 1 13.023438 26.228516 z M 13.009766 27.509766 A 15.977 15.989 0 0 0 12.984375 28.009766 A 15.977 15.989 0 0 0 28.960938 44 A 15.977 15.989 0 0 0 44.9375 28.009766 A 15.977 15.989 0 0 0 44.917969 27.601562 A 15.977 15.989 0 0 1 28.960938 43 A 15.977 15.989 0 0 1 13.009766 27.509766 z "
     id="path4157" />
</svg>

<?xml version="1.0" encoding="UTF-8" standalone="no"?>
<svg id="svg5453" xmlns:rdf="http://www.w3.org/1999/02/22-rdf-syntax-ns#" xmlns="http://www.w3.org/2000/svg" height="48" width="48" version="1.1" xmlns:cc="http://creativecommons.org/ns#" xmlns:dc="http://purl.org/dc/elements/1.1/">
 <metadata id="metadata5458">
  <rdf:RDF>
   <cc:Work rdf:about="">
    <dc:format>image/svg+xml</dc:format>
    <dc:type rdf:resource="http://purl.org/dc/dcmitype/StillImage"/>
    <dc:title/>
   </cc:Work>
  </rdf:RDF>
 </metadata>
 <path id="path4157" opacity=".2" d="m19.984 7.5059a2.996 2.9983 0 0 0 1.1582 2.8945l2.1055 1.6211h1.2988l-3.4043-2.6211a2.996 2.9983 0 0 1 -1.158 -1.8941zm-14.945 8.0041a2.9962 2.9985 0 0 0 2.9531 3.5078h6.1328l1.375-1h-7.5078a2.9962 2.9985 0 0 1 -2.9531 -2.5078zm7.9844 11.719-6.2695 4.5566a2.996 2.9983 0 0 1 -4.791 -1.877 2.996 2.9983 0 0 0 4.791 2.877l6.2422-4.5371a15.977 15.989 0 0 1 -0.01172 -0.23828 15.977 15.989 0 0 1 0.03906 -0.78125zm-0.01367 1.2812a15.977 15.989 0 0 0 -0.02539 0.5 15.977 15.989 0 0 0 15.976 15.99 15.977 15.989 0 0 0 15.977 -15.99 15.977 15.989 0 0 0 -0.02 -0.408 15.977 15.989 0 0 1 -15.957 15.398 15.977 15.989 0 0 1 -15.951 -15.49z"/>
 <path id="path4145" fill="#f4b43f" d="m22.846 4.002a2.996 2.9983 0 0 0 -1.703 5.3984l3.404 2.6206h-16.555a2.9962 2.9985 0 1 0 0.0002 5.997h7.5078l-12.266 8.918a2.996 2.9983 0 1 0 3.5199 4.849l6.2691-4.556a15.977 15.989 0 0 0 -0.039 0.781 15.977 15.989 0 0 0 15.977 15.99 15.977 15.989 0 0 0 15.977 -15.99 15.977 15.989 0 0 0 -6.946 -13.188 2.996 2.9983 0 0 0 -0.215 -0.181l-12.982-9.9945a2.996 2.9983 0 0 0 -1.949 -0.6445z"/>
 <path id="path4150" opacity=".2" d="m29 19a10 10 0 0 1 10 10 10 10 0 0 1 -10 10 10 10 0 0 1 -10 -10 10 10 0 0 1 10 -10z"/>
 <path id="path4184" fill="#fff" d="m29 18a10 10 0 0 1 10 10 10 10 0 0 1 -10 10 10 10 0 0 1 -10 -10 10 10 0 0 1 10 -10z"/>
 <circle id="path4178" cy="28" cx="29" r="5" fill="#408ef4"/>
 <path id="path4152" opacity=".2" d="m22.846 4.002a2.996 2.9983 0 0 0 -2.862 3.5039 2.996 2.9983 0 0 1 2.862 -2.5039 2.996 2.9983 0 0 1 1.949 0.6445l12.982 9.9945a2.996 2.9983 0 0 1 0.215 0.181 15.977 15.989 0 0 1 6.926 12.78 15.977 15.989 0 0 0 0.02 -0.592 15.977 15.989 0 0 0 -6.946 -13.188 2.996 2.9983 0 0 0 -0.215 -0.181l-12.982-9.9945a2.996 2.9983 0 0 0 -1.949 -0.6445zm-14.854 8.019a2.9962 2.9985 0 0 0 -2.9531 3.487 2.9962 2.9985 0 0 1 2.9531 -2.487h16.555l-1.299-1h-15.256zm6.1328 6.997l-10.891 7.918a2.996 2.9983 0 0 0 -1.2711 2.972 2.996 2.9983 0 0 1 1.2715 -1.972l12.266-8.918h-1.375zm-1.102 9.211l-0.027 0.019a15.977 15.989 0 0 0 0.014 0.262 15.977 15.989 0 0 1 0.013 -0.281z" fill="#fff"/>
</svg>
